img/text-flowers/text-flower-3.svg

<svg width="120" height="94" fill="none" xmlns="http://www.w3.org/2000/svg"><path d="M44.875 4L35.5.5l-3.5 5-2.75 4.125-2.5 5-1.875 7.5v8.75h-1.25s-5.72-.213-9.375 0C8.633 31.203 0 33 0 33s6.394 4.428 9 8.5c3.268 5.106 4 15 4 15l1.25 6.25L18 71.5l3.125 5L28 83.375l6.875 4.375 6.25 2.5 9.375 2.5 7.5.625 4.375-.625H65.5l9.375-3.125 6.25-2.5 3.75-2.5 6.875-4.375L98 74l5-6.25 3.125-6.25L108 55.25s2.055-7.488 4.5-11.75c2.215-3.862 7-9 7-9s-9.997-2.678-16.5-2.375c-2.208.103-5.625.625-5.625.625l-3.75-.625.625-1.875V19.625l-.625-3.125-1.875-4.375L89 5.5l-4.125-5L76 3l-5.5 4.125-6.25 5L63 15.25h-1.25l-1.25 2.5h-1.25L57.375 14h-1.25v-1.25l-5-5L44.875 4z" fill="#64A5C3"/><path d="M59.875 25.25l6.25 1.25 5 2.5 6.25 5.625-.625 2.5-3.125 3.125-4.375 5.625-4.375 9.375L61.75 66.5l-.625 3.75h-1.25l-2.5-10.625-3.75-9.375-4.375-6.875-.625-1.875h-1.25L43 36.5l.625-2.5 2.5-3.125 5.625-3.75 3.75-1.25 4.375-.625z" fill="#FCFCFC"/></svg>

<svg width="120" height="94" viewBox="0 0 120 94" fill="none" xmlns="http://www.w3.org/2000/svg">
<path d="M44.875 4L35.5 0.5L32 5.5L29.25 9.625L26.75 14.625L24.875 22.125V30.875H23.625C23.625 30.875 17.9049 30.6616 14.25 30.875C8.63306 31.203 0 33 0 33C0 33 6.39412 37.428 9 41.5C12.2678 46.6065 13 56.5 13 56.5L14.25 62.75L18 71.5L21.125 76.5L28 83.375L34.875 87.75L41.125 90.25L50.5 92.75L58 93.375L62.375 92.75H65.5L74.875 89.625L81.125 87.125L84.875 84.625L91.75 80.25L98 74L103 67.75L106.125 61.5L108 55.25C108 55.25 110.055 47.7624 112.5 43.5C114.715 39.6375 119.5 34.5 119.5 34.5C119.5 34.5 109.503 31.8215 103 32.125C100.792 32.228 97.375 32.75 97.375 32.75L93.625 32.125L94.25 30.25V19.625L93.625 16.5L91.75 12.125L89 5.5L84.875 0.5L76 3L70.5 7.125L64.25 12.125L63 15.25H61.75L60.5 17.75H59.25L57.375 14H56.125V12.75L51.125 7.75L44.875 4Z" fill="#64A5C3"/>
<path d="M59.875 25.25L66.125 26.5L71.125 29L77.375 34.625L76.75 37.125L73.625 40.25L69.25 45.875L64.875 55.25L61.75 66.5L61.125 70.25H59.875L57.375 59.625L53.625 50.25L49.25 43.375L48.625 41.5H47.375L43 36.5L43.625 34L46.125 30.875L51.75 27.125L55.5 25.875L59.875 25.25Z" fill="#FCFCFC"/>
</svg>
